!!!OTL: Der eifersuechtige Knabe Ich ging einmal spazieren
!!!ARE: Europa, Mitteleuropa, Lothringen, Gebenhausen
!!!SCT: D0026
!!!YEM: Copyright 1995, estate of Helmut Schaffrath.
**kern
*ICvox
*Ivox
*M6/8
*k[f#]
*G:
{8dd
=1
4b
8b
4a
8a
=2
4.g
4d}
{8g
=3
8g
8g
8a
8b
8g
8a
=4
[4.b
4b]}
{8cc
=5
8b
8dd
8dd
8ee
8dd
8cc
=6
4.b
4.a}
=7
{4.g
4.a
=8
8.dd
16cc
8b
8cc
8b
8a
=9
[4.g
4g]}
==
!!!AGN: Ballade, Liebe, Mord aus Eifersucht
!! Inzipit = entfernte Variante zum Lied
!!!ONB: ESAC (Essen Associative Code) Database: DVA
!!!AMT: compound duple
!!!AIN: vox
!!!EED: Helmut Schaffrath
!!!EEV: 1.0
*-
